X: 39455
T: Tarbolton
R: jig
M: 6/8
K: Edorian
D1|:Eed eBA|GBF GFE|Ddc dAF|GBG FDF|
Eed efg|fdf edB|GAB FA=c|BGB AFD:|
gfe geb|geb gef|ded ade|A3 FDF|
GGB FFA|Eef gfe|BdB AFA|BGB AFD:|

